src/assets/duotone/FilterAdd.svg

<svg width="24" height="24" viewBox="0 0 24 24"  xmlns="http://www.w3.org/2000/svg">
<path opacity="0.4" d="M5.40992 2H18.5799C19.6799 2 20.5799 2.90999 20.5799 4.01999V6.23999C20.5799 7.04999 20.0799 8.06 19.5799 8.56L15.2899 12.4C14.6899 12.91 14.2899 13.92 14.2899 14.72V19.06C14.2899 19.67 13.8899 20.47 13.3899 20.78L11.9999 21.7C10.6999 22.51 8.90992 21.6 8.90992 19.98V14.63C8.90992 13.92 8.50992 13.01 8.10992 12.51L4.31992 8.47C3.81992 7.96 3.41992 7.06001 3.41992 6.45001V4.13C3.41992 2.91 4.31992 2 5.40992 2Z" />
<path d="M16.8799 10C14.2599 10 12.1299 12.13 12.1299 14.75C12.1299 15.64 12.3799 16.48 12.8199 17.2C13.6399 18.58 15.1499 19.5 16.8799 19.5C18.6099 19.5 20.1199 18.57 20.9399 17.2C21.3799 16.49 21.6299 15.64 21.6299 14.75C21.6299 12.13 19.5099 10 16.8799 10ZM18.6599 15.48H17.6299V16.55C17.6299 16.96 17.2899 17.3 16.8799 17.3C16.4699 17.3 16.1299 16.96 16.1299 16.55V15.48H15.1099C14.6999 15.48 14.3599 15.14 14.3599 14.73C14.3599 14.32 14.6999 13.98 15.1099 13.98H16.1299V13C16.1299 12.59 16.4699 12.25 16.8799 12.25C17.2899 12.25 17.6299 12.59 17.6299 13V13.98H18.6599C19.0699 13.98 19.4099 14.32 19.4099 14.73C19.4099 15.14 19.0699 15.48 18.6599 15.48Z" />
</svg>

<?xml version="1.0" encoding="UTF-8"?>
<svg width="24" height="24" viewBox="0 0 24 24" xmlns="http://www.w3.org/2000/svg">
 <path d="m5.4099 2h13.17c1.1 0 2 0.90999 2 2.02v2.22c0 0.81-0.5 1.82-1 2.32l-4.29 3.84c-0.6 0.51-1 1.52-1 2.32v4.34c0 0.61-0.4 1.41-0.9 1.72l-1.39 0.92c-1.3 0.81-3.09-0.1-3.09-1.72v-5.35c0-0.71-0.4-1.62-0.8-2.12l-3.79-4.04c-0.5-0.51-0.9-1.41-0.9-2.02v-2.32c0-1.22 0.9-2.13 1.99-2.13z" opacity=".4"/>
 <path d="m16.88 10c-2.62 0-4.75 2.13-4.75 4.75 0 0.89 0.25 1.73 0.69 2.45 0.82 1.38 2.33 2.3 4.06 2.3s3.24-0.93 4.06-2.3c0.44-0.71 0.69-1.56 0.69-2.45 0-2.62-2.12-4.75-4.75-4.75zm1.78 5.48h-1.03v1.07c0 0.41-0.34 0.75-0.75 0.75s-0.75-0.34-0.75-0.75v-1.07h-1.02c-0.41 0-0.75-0.34-0.75-0.75s0.34-0.75 0.75-0.75h1.02v-0.98c0-0.41 0.34-0.75 0.75-0.75s0.75 0.34 0.75 0.75v0.98h1.03c0.41 0 0.75 0.34 0.75 0.75s-0.34 0.75-0.75 0.75z"/>
</svg>
